X:307
%%etbk:tnset id:95,pos:3,rep:3x,ant:
%%etbk:tnset id:260,pos:9,rep:3x,ant:
%%etbk:tnset id:323,pos:3,rep:3x,ant:
%%etbk:wsite http://www.thesession.org/tunes/display/55
%%etbk:pldat 2016-05-04T16:00,2016-03-10T18:16,2016-03-08T15:22,2016-03-05T13:20,2016-02-16T17:11,2015-10-29T18:14,2015-10-27T16:01,2015-10-24T15:36,2015-10-20T16:19,2015-10-07T16:49,2015-10-01T18:48,2015-06-21T15:20,2015-03-13T18:55,2015-03-10T15:57,2015-03-06T15:53,2015-03-04T15:12,2015-03-03T18:11,2015-02-14T14:25,2015-01-27T15:56,2014-11-06T17:56,2014-11-04T15:37,2014-11-01T13:43,2014-10-20T18:17,2014-09-04T18:41,2014-09-03T18:53,2014-09-02T18:44,2014-09-01T18:46,2014-08-31T14:04,2014-08-28T18:42,2014-08-26T16:56,2014-08-21T18:54,2014-08-20T18:30,2014-08-04T18:08,2014-06-23T18:00,2014-06-22T16:30,2014-06-10T18:04,2014-06-09T15:01,2014-03-06T17:58,2014-03-04T18:02,2014-03-01T17:16,2014-02-24T17:56,2014-02-20T18:51,2014-02-14T15:25,2013-10-30T16:32,2013-10-29T16:10,2013-10-28T18:50,2013-10-27T13:56,2013-10-23T18:03,2013-10-18T15:36,2013-10-17T19:04,2013-10-16T15:44,2013-10-15T18:11,2013-10-14T18:33,2013-10-13T14:48,2013-10-08T15:50
T: Kesh, The
Z: Piano Box Version by Martin Fleischmann
H: Created 2013-02-19 /  Last Modified 2013-02-19
M: 6/8
L: 1/8
R: jig
K: Gmaj
|:  "G"!1!G!2!G!1!G !1!GA!3!B | "D"!1!A!2!A!1!A !1!A!2!B!4!d | "G"!2!e!1!dd !4!g!1!dd | {g}!2!e!1!d!3!B !5!dBA |
"G"!1!GAG GA!3!B | "D"!1!A2A !1!A!2!B!4!d | "G"!2!e!1!dd !4!g!1!d!3!B | "D"!2!A!1!G!2!F "G"!1!G3:|
|: "G"!1!B!2!B!1!B !2!dBd | !3!e!5!ge !2!d!1!B!2!G | !3!B!1!G!3!B B!5!dB | "D"!2!A2A {c}AG!2!A |
"G"!1!B!2!B!1!B !2!dBd | !3!e!5!ge !2!dB!2!d | !3!g!1!dg "D"!4!a!1!da | "G"!5!bgf !3!g3:|


